X:1
T:Marche de Saint Louis
T:(Brignoles)
O:France
A:Provence
R:Marche
%continueall 1
M:C
L:1/8
Q:"Lento"
K:Bb
B4c4 | d2cd edcB | f2fg fedc | B4 c4 | d2cd edcB | B2AG ABcd | F3F AGF=E | F6z2 |
c4d4 | e2ed cdee | dcde dcBA | G4 A4 | B2BA GABc | B3c defe | B3B d>c B>A | B6z2 |
d4e4 | f2B2 BcBA | G6z2 | d4e4 | f2B2 dcBA | B3B cdec | B4 f2f>f | f6z2 |
d4e4 | f2B2 BcBA | G4F2z2 | d4e4 | f2B2 dcBA | B3c defd | B3e d>c B>A | B6z2 |]
